X:1
T:Title
%%score 1 2
L:1/8
Q:1/4=68
M:6/8
K:Ab
V:1 treble nm="Strings 1, Treble"
V:2 bass nm="Strings 1, Bass"
V:1
 z3 z2 [CE] | [Ec][Ec][Ec] [DB][CA][DB] | [Ec] [CA]2- [CA]2 [EA] | [FA][=EG][FA] [_GB][FA][DF] | %4
 [CE]3- [CE]2 [CE] | [CA][CA][CA] [FA][EG][DF] | [CE] [Ec]2- [Ec]2 [Ec] | %7
 [Ec][EB][EB] [=DF][DG][DA] | [EB]3- [EB]2 E | [Ec][Ec][Ec] [DB][CA][DB] | [Ec] [CA]2- [CA]2 [EA] | %11
 [FA][Fd][Fd] [Fd][_Ge][Fd] | [Ec]3- [Ec]2 [Ec] | [Ae][Ae][Ae] [Af][Ae][Ec] | %14
 [Ec] [EA]2- [EA]2 [DF] | [CE][CE][EA] [EA][EG][EB] | [EA]3- [EA]2 [CA] | [CA]3 [CE]2 [Ec] | %18
 [Ec]3 [EA]2 [Ae] | [Ae][Ad][Ac] [Ac][AB]A | [GB]3- [GB]2 [DE] | [CA][CA][CA] [CA][DB][Ec] | %22
 [_Ge]3 [Fd]2[Q:1/4=68] [FB][Q:1/4=12] | [EA][EG][EA] [Ec][Ec][Q:1/4=68][DB][Q:1/4=12] | [CA]6 |] %25
V:2
 z3 z2 [A,,A,] | [A,,A,][A,,A,][A,,A,] [A,,E,][A,,E,][A,,E,] | [A,,A,] [A,,A,]2- [A,,A,]2 [A,,C] | %3
 [D,D][D,D][D,D] [D,D][D,D][D,A,] | [A,,A,]3- [A,,A,]2 [A,,A,] | %5
 [A,,A,][A,,A,][A,,A,] [D,A,][D,A,][D,A,] | [A,,A,] [A,,A,]2- [A,,A,]2 [A,,A,] | %7
 [B,,G,][B,,G,][B,,G,] [B,,A,][B,,A,][B,,A,] | [E,G,]3- [E,G,]2 [E,G,] | %9
 [A,,A,][A,,A,][A,,A,] [A,,E,][A,,E,][A,,E,] | [A,,A,] [A,,A,]2- [A,,A,]2 [C,A,] | %11
 [D,A,][D,A,][D,A,] [D,A,][D,A,][D,A,] | [A,,A,]3- [A,,A,]2 A, | [A,C][A,C][A,C] [A,D][A,C]A, | %14
 A, [C,A,]2- [C,A,]2 [D,A,] | [E,A,][E,A,][E,C] [E,C][E,B,][E,D] | [A,,C]3- [A,,C]2 [A,,E,] | %17
 [A,,E,][A,,E,][A,,E,] [A,,A,]2 [A,,A,] | [A,,A,][C,A,][E,A,] [A,C]2 [A,C] | %19
 [A,C][A,E][A,E] [F,=D][F,D][F,D] | [E,E]3- [E,E]2 [E,G,] | %21
 [A,,A,][A,,A,][A,,A,] [A,,A,][A,,A,][A,,A,] | [C,A,]3 [D,A,]2 [D,D] | %23
 [E,C][E,B,][E,C] [E,A,][E,A,][E,G,] | [A,,A,]6 |] %25

